X:1
T:beambr test 2/4
C:
M:2/4
L:1/16
K:HP
%%text halfbeam discontinued and beambr1 and beambr2 
%%text implemented in 4.12.0
%%vskip 1cm
%%text with no beambr2:
AAAA A>AA>A | A<AAA A>AAA | A<AA>A &quot;wrong&quot;A>AA<A | &quot;wrong&quot;A<AA<A AAAA |
%%text corrected with beambr2:
AAAA A>AA>A | A<AAA A>AAA | A<AA>A A>Abeambr2A<A | A<Abeambr2A<A 
AAAA |
